X: 1
T: the Lost Fiddler of Mull
C: Brian McNeil
R: reel
Z: 2010 John Chambers <jc:trillian.mit.edu>
F: http://www.unippm.se/swf/player/15/exPlayer.aspx?trackID=192795
N: As usual, the grace notes aren't to be taken seriously, and aren't consistent
N: in the recording. Whistle/flute players can play the final bars up an octave.
M: C|
L: 1/8
K: D
G2 |\
FAAd dAde | fdgf e2fe | d2AF G{A}BAG | FDEC D2G2 |
FAAd dAde | fdgf e{f}gfe | d2AF GBAG | F{E}DEC D2 :| z2 |
{c}d2Ad F{E}DFG | ABcd egfg | gfed dcBA | B{c}dAF E2Ac |
d2Ad F{E}DFG | ABcd egfe | d2AF GBAG | F{E}DEC D2Ac ||
d2Ad F{E}DFG | ABcd egfg | gfed dcBA | B{c}dAF E2G2 |
FAAd dAde | fdgf e{f}gfe | d2AF GBAG | F{E}DEC D2 |]
